src/assets/images/iconThree.svg

<svg width="32" height="32" viewBox="0 0 32 32" fill="none" xmlns="http://www.w3.org/2000/svg">
<g clip-path="url(#clip0_102_347)">
<path d="M15.9988 15.9986L16.8821 0.0253991C16.5914 0.00846636 16.2951 0 16.0016 0C15.7081 0 15.4118 0.00846636 15.1211 0.0253991L16.0016 15.9986H15.9988Z" fill="#E23C18"/>
<path d="M15.9996 32.0001C16.296 32.0001 16.5895 31.9916 16.8801 31.9747L15.9996 16.0015L15.1191 31.9747C15.4098 31.9916 15.7061 32.0001 15.9996 32.0001Z" fill="#E23C18"/>
<path d="M15.9986 15.9985L13.3035 0.228516C13.0157 0.279314 12.7278 0.332934 12.4371 0.400665C12.1493 0.465574 11.8642 0.541771 11.582 0.62079L15.9958 15.9985H15.9986Z" fill="#E23C18"/>
<path d="M19.5587 31.5964C19.8465 31.5315 20.1316 31.4553 20.4138 31.3763L16 15.9985L18.6951 31.7685C18.983 31.7177 19.2708 31.6641 19.5615 31.5964H19.5587Z" fill="#E23C18"/>
<path d="M15.9984 15.9984L9.86034 1.22461C9.58941 1.33749 9.32131 1.45602 9.05603 1.58584C8.79075 1.71566 8.5283 1.85112 8.27148 1.99223L15.9984 16.0012V15.9984Z" fill="#E23C18"/>
<path d="M22.9424 30.4134C23.2077 30.2836 23.4701 30.1482 23.727 30.007L16 15.998L22.1381 30.7718C22.409 30.659 22.6771 30.5404 22.9424 30.4106V30.4134Z" fill="#E23C18"/>
<path d="M15.9983 15.9983L6.72767 2.96289C6.49061 3.13222 6.25356 3.30719 6.02214 3.49345C5.79073 3.67689 5.56778 3.86879 5.34766 4.06352L15.9983 15.9983Z" fill="#E23C18"/>
<path d="M25.9771 28.5057C26.2085 28.3222 26.4314 28.1303 26.6515 27.9356L15.998 15.998L25.2715 29.0362C25.5086 28.8669 25.7456 28.6919 25.9771 28.5057Z" fill="#E23C18"/>
<path d="M16 15.9985L4.05961 5.35352C3.86488 5.57082 3.6758 5.79659 3.48954 6.028C3.30328 6.25942 3.12831 6.49365 2.95898 6.73353L16 15.9985Z" fill="#E23C18"/>
<path d="M28.5105 25.9719C28.6939 25.7405 28.8717 25.5063 29.041 25.2664L16 15.9985L27.9404 26.6464C28.1351 26.4291 28.3242 26.2033 28.5105 25.9719Z" fill="#E23C18"/>
<path d="M15.9993 15.9987L1.98745 8.27734C1.84634 8.53416 1.71088 8.79379 1.58107 9.06189C1.45407 9.32717 1.33272 9.59809 1.22266 9.8662L15.9993 15.9987Z" fill="#E23C18"/>
<path d="M30.4182 22.9382C30.5452 22.673 30.6666 22.402 30.7766 22.1339L16 16.0015L30.0118 23.7228C30.1529 23.466 30.2884 23.2063 30.4182 22.9382Z" fill="#E23C18"/>
<path d="M15.9985 15.9985L0.62079 11.5903C0.541771 11.8725 0.465574 12.1548 0.400665 12.4454C0.335756 12.7333 0.279314 13.0211 0.228516 13.3118L15.9985 16.0013V15.9985Z" fill="#E23C18"/>
<path d="M31.5998 19.5544C31.6647 19.2665 31.7212 18.9787 31.772 18.688L16.002 15.9985L31.3797 20.4067C31.4587 20.1245 31.5349 19.8423 31.5998 19.5516V19.5544Z" fill="#E23C18"/>
<path d="M15.9986 15.9984L0.0253991 15.1235C0.00846636 15.4142 0 15.7077 0 16.004C0 16.3004 0.00846636 16.5939 0.0253991 16.8845L15.9986 15.9984Z" fill="#E23C18"/>
<path d="M32.0005 15.9928C32.0005 15.6965 31.9921 15.403 31.9751 15.1123L16.002 15.9984L31.9751 16.8733C31.9921 16.5826 32.0005 16.2863 32.0005 15.9928Z" fill="#E23C18"/>
<path d="M15.9976 15.9985L0.230469 18.6993C0.281267 18.9872 0.337709 19.275 0.402618 19.5657C0.467527 19.8535 0.543724 20.1386 0.622743 20.4208L15.9976 16.0014V15.9985Z" fill="#E23C18"/>
<path d="M31.597 12.4342C31.5321 12.1463 31.4559 11.8613 31.3769 11.5791L16.002 15.9985L31.772 13.2978C31.7212 13.0099 31.6647 12.7221 31.5998 12.4314L31.597 12.4342Z" fill="#E23C18"/>
<path d="M15.9975 15.998L1.22656 22.1418C1.33945 22.4127 1.45798 22.6808 1.58779 22.9461C1.71761 23.2114 1.85307 23.4738 1.99418 23.7307L16.0004 15.998H15.9975Z" fill="#E23C18"/>
<path d="M30.4106 9.05017C30.2808 8.78489 30.1453 8.52244 30.0042 8.26562L15.998 15.9982L30.769 9.85448C30.6561 9.58355 30.5376 9.31545 30.4078 9.05017H30.4106Z" fill="#E23C18"/>
<path d="M15.9993 15.9985L2.9668 25.2748C3.13612 25.5119 3.3111 25.749 3.49736 25.9804C3.68079 26.2118 3.8727 26.4347 4.06742 26.6549L15.9993 15.9985Z" fill="#E23C18"/>
<path d="M28.5048 6.01677C28.3214 5.78536 28.1295 5.56241 27.9347 5.34229L16 15.9986L29.0354 6.7223C28.866 6.48524 28.6911 6.24818 28.5048 6.01677Z" fill="#E23C18"/>
<path d="M15.9977 15.999L5.35547 27.9451C5.57277 28.1398 5.79854 28.3289 6.02996 28.5151C6.26137 28.6986 6.4956 28.8763 6.73548 29.0457L15.9977 15.999Z" fill="#E23C18"/>
<path d="M25.9686 3.48564C25.7372 3.3022 25.5001 3.12441 25.2631 2.95508L15.998 15.9989L26.6403 4.0557C26.423 3.86098 26.1972 3.6719 25.9658 3.48564H25.9686Z" fill="#E23C18"/>
<path d="M15.9989 15.9984L8.2832 30.0131C8.54002 30.1542 8.79965 30.2896 9.06775 30.4166C9.33585 30.5436 9.60395 30.665 9.87206 30.775L15.9989 15.9956V15.9984Z" fill="#E23C18"/>
<path d="M22.9331 1.58009C22.6678 1.45309 22.3969 1.33174 22.1288 1.22168L16.002 16.0011L23.7176 1.98365C23.4608 1.84255 23.2012 1.70708 22.9331 1.58009Z" fill="#E23C18"/>
<path d="M15.9991 15.9985L11.5938 31.3791C11.876 31.4581 12.1582 31.5343 12.4489 31.5992C12.7367 31.6641 13.0246 31.7206 13.3152 31.7714L15.9991 15.9985Z" fill="#E23C18"/>
<path d="M19.5502 0.397735C19.2624 0.332826 18.9745 0.276384 18.6838 0.225586L16 15.9984L20.4053 0.61786C20.1231 0.538841 19.8409 0.462644 19.5502 0.397735Z" fill="#E23C18"/>
</g>
<defs>
<clipPath id="clip0_102_347">
<rect width="32" height="32" fill="white"/>
</clipPath>
</defs>
</svg>

<svg width="32" height="32" fill="none" xmlns="http://www.w3.org/2000/svg"><g clip-path="url(#a)" fill="#E23C18"><path d="M15.999 15.999 16.882.025a15.212 15.212 0 0 0-1.76 0L16.001 16h-.003ZM16 32c.296 0 .59-.008.88-.025L16 16l-.88 15.974c.29.017.586.025.88.025Z"/><path d="M15.999 15.998 13.303.229a16.215 16.215 0 0 0-1.721.393l4.414 15.378h.003ZM19.559 31.596c.287-.064.573-.14.855-.22L16 15.998l2.695 15.77c.288-.05.576-.104.866-.172h-.002Z"/><path d="M15.998 15.998 9.86 1.225c-.27.112-.539.231-.804.36-.265.13-.528.266-.785.407l7.727 14.01v-.004ZM22.942 30.413c.266-.13.528-.265.785-.406L16 15.998l6.138 14.774c.271-.113.54-.232.804-.361v.002Z"/><path d="M15.998 15.998 6.728 2.963a15.354 15.354 0 0 0-1.38 1.1l10.65 11.935Z"/><path d="M25.977 28.506c.232-.184.454-.376.674-.57L15.998 15.998l9.274 13.038c.237-.17.474-.344.705-.53ZM16 15.998 4.06 5.354c-.195.217-.384.443-.57.674-.187.231-.362.466-.531.706L16 15.998ZM28.51 25.972c.184-.232.362-.466.531-.706L16 16l11.94 10.647c.195-.217.384-.443.57-.674Z"/><path d="M16 15.999 1.986 8.277a15.55 15.55 0 0 0-.765 1.589L16 16ZM30.418 22.938c.127-.265.249-.536.359-.804L16 16l14.012 7.722c.14-.257.276-.517.406-.785Z"/><path d="M15.998 15.998.621 11.59a16.494 16.494 0 0 0-.392 1.722l15.77 2.69v-.003ZM31.6 19.554c.065-.287.121-.575.172-.866l-15.77-2.69 15.378 4.409c.079-.282.155-.565.22-.855v.002Z"/><path d="M15.999 15.998.025 15.124a15.14 15.14 0 0 0 0 1.76L16 15.998ZM32 15.993c0-.296-.008-.59-.025-.88l-15.973.885 15.973.875c.017-.29.026-.587.026-.88Z"/><path d="M15.998 15.998.23 18.7c.051.288.108.576.173.867.065.288.14.573.22.855L15.998 16v-.003ZM31.597 12.434a17.241 17.241 0 0 0-.22-.855L16.002 16l15.77-2.701c-.05-.288-.107-.576-.172-.867l-.003.003Z"/><path d="M15.998 15.998 1.226 22.142c.112.27.231.539.36.804.13.265.266.528.407.785L16 15.998h-.002Z"/><path d="M30.41 9.05a18.69 18.69 0 0 0-.406-.784l-14.006 7.732 14.771-6.144c-.113-.27-.231-.539-.361-.804h.003ZM16 15.998 2.966 25.276a15.316 15.316 0 0 0 1.1 1.38L16 15.998Z"/><path d="M28.505 6.017a16.257 16.257 0 0 0-.57-.675L16 16l13.035-9.277c-.169-.237-.344-.474-.53-.705ZM15.998 15.999 5.355 27.945a15.881 15.881 0 0 0 1.38 1.1L15.998 16ZM25.969 3.486a17.741 17.741 0 0 0-.706-.53l-9.265 13.043L26.64 4.056a16.707 16.707 0 0 0-.674-.57h.003Z"/><path d="M15.999 15.998 8.283 30.013c.257.141.517.277.785.404s.536.248.804.358L16 15.995v.003ZM22.933 1.58a15.56 15.56 0 0 0-.804-.358l-6.127 14.78 7.716-14.018a14.647 14.647 0 0 0-.785-.404ZM16 15.998 11.593 31.38a16.478 16.478 0 0 0 1.721.392L16 15.998ZM19.55.398a18.058 18.058 0 0 0-.866-.172L16 15.998 20.405.618a16.468 16.468 0 0 0-.855-.22Z"/></g><defs><clipPath id="a"><path fill="#fff" d="M0 0h32v32H0z"/></clipPath></defs></svg>
